findforce-vs-hunter.svg

<svg xmlns="http://www.w3.org/2000/svg" viewBox="0 0 800 400"><defs><linearGradient id="a" x1="0%" x2="100%" y1="0%" y2="100%"><stop offset="0%" style="stop-color:#f8f9fa;stop-opacity:1"/><stop offset="100%" style="stop-color:#e9ecef;stop-opacity:1"/></linearGradient><linearGradient id="b" x1="0%" x2="100%" y1="0%" y2="0%"><stop offset="0%" style="stop-color:#4263eb;stop-opacity:1"/><stop offset="100%" style="stop-color:#7950f2;stop-opacity:1"/></linearGradient></defs><path fill="url(#a)" d="M0 0h800v400H0z"/><g transform="translate(200 200)"><rect width="160" height="200" x="-80" y="-100" fill="#fff" stroke="#dee2e6" stroke-width="2" rx="20"/><text y="-115" fill="#495057" font-family="system-ui, -apple-system, sans-serif" font-size="16" font-weight="600" text-anchor="middle">Hunter.io</text><rect width="120" height="15" x="-60" y="-70" fill="#f1f3f5" rx="7"/><rect width="120" height="15" x="-60" y="-70" fill="#fa5252" opacity=".2" rx="7"/><rect width="30" height="15" x="-60" y="-70" fill="#fa5252" rx="7"><animate attributeName="width" dur="3s" repeatCount="indefinite" values="120;80;40;10;0"/></rect><text y="-73" fill="#fff" font-family="system-ui" font-size="10" font-weight="500" text-anchor="middle">Credits</text><text y="-30" fill="#868e96" font-family="system-ui" font-size="14" text-anchor="middle">Monthly
      Cost:</text><text y="-5" fill="#fa5252" font-family="system-ui" font-size="28" font-weight="700" text-anchor="middle"> $<tspan>
        <animate attributeName="textContent" dur="3s" repeatCount="indefinite" values="49;99;149;299"/>
      </tspan>
    </text><g font-size="24"><text x="-30" transform="translate(0 40)">💸</text><text transform="translate(0 40)">
        <animate attributeName="opacity" dur="2s" repeatCount="indefinite" values="0;1;0"/> 💸 </text><text x="30" transform="translate(0 40)">
        <animate attributeName="opacity" begin="0.5s" dur="2s" repeatCount="indefinite" values="0;1;0"/> 💸 </text></g><g transform="translate(70 -80)"><circle r="15" fill="#ff6b6b"/><text y="5" fill="#fff" font-family="system-ui" font-size="18" font-weight="700" text-anchor="middle">!</text></g></g><g transform="translate(400 200)"><circle r="25" fill="#fff" stroke="#dee2e6" stroke-width="2"/><text y="5" fill="#495057" font-family="system-ui" font-size="14" font-weight="700" text-anchor="middle">VS</text></g><g transform="translate(600 200)"><rect width="160" height="200" x="-80" y="-100" fill="#fff" stroke="#4263eb" stroke-width="2" rx="20"/><text y="-115" fill="#495057" font-family="system-ui" font-size="16" font-weight="600" text-anchor="middle">FindForce</text><path fill="url(#b)" d="M-30-40q-20 0-20 15t20 15h20q20 0 20-15t-20-15zm60 0q20 0 20 15T30-10H10q-20 0-20-15t20-15z" transform="scale(1.5)"><animateTransform attributeName="transform" dur="10s" from="0 0 -25" repeatCount="indefinite" to="360 0 -25" type="rotate"/></path><text y="10" fill="#868e96" font-family="system-ui" font-size="14" text-anchor="middle">
      Always:</text><text y="35" fill="#4263eb" font-family="system-ui" font-size="32" font-weight="700" text-anchor="middle">$49</text><text y="55" fill="#868e96" font-family="system-ui" font-size="12" text-anchor="middle">Unlimited
      Forever</text><rect width="120" height="30" x="-60" y="70" fill="#51cf66" rx="15"/><text y="90" fill="#fff" font-family="system-ui" font-size="14" font-weight="600" text-anchor="middle">Save 83%</text><g transform="translate(70 -80)"><circle r="15" fill="#51cf66"/><path fill="none" stroke="#fff" stroke-linecap="round" stroke-linejoin="round" stroke-width="3" d="m-7 0 5 5L7-5"/></g></g><text x="400" y="30" fill="#212529" font-family="system-ui" font-size="24" font-weight="700" text-anchor="middle">The Credit Trap vs Unlimited Freedom</text><text x="400" y="380" fill="#868e96" font-family="system-ui" font-size="14" text-anchor="middle">Hunter.io:
    Pay more as you grow | FindForce: Same price at any scale</text></svg>

<svg viewBox="0 0 800 400" xmlns="http://www.w3.org/2000/svg">
  <!-- Background gradient -->
  <defs>
    <linearGradient id="bgGradient" x1="0%" y1="0%" x2="100%" y2="100%">
      <stop offset="0%" style="stop-color:#f8f9fa;stop-opacity:1" />
      <stop offset="100%" style="stop-color:#e9ecef;stop-opacity:1" />
    </linearGradient>

    <!-- Money burning animation -->
    <animate id="burn" attributeName="opacity" values="1;0.3;1" dur="2s" repeatCount="indefinite" />

    <!-- Infinity symbol gradient -->
    <linearGradient id="infinityGradient" x1="0%" y1="0%" x2="100%" y2="0%">
      <stop offset="0%" style="stop-color:#4263eb;stop-opacity:1" />
      <stop offset="100%" style="stop-color:#7950f2;stop-opacity:1" />
    </linearGradient>
  </defs>

  <rect width="800" height="400" fill="url(#bgGradient)" />

  <!-- Hunter.io Side (Left) -->
  <g transform="translate(200, 200)">
    <!-- Credit meter depleting -->
    <rect x="-80" y="-100" width="160" height="200" rx="20" fill="#ffffff" stroke="#dee2e6"
      stroke-width="2" />
    <text x="0" y="-115" text-anchor="middle" font-family="system-ui, -apple-system, sans-serif"
      font-size="16" font-weight="600" fill="#495057">Hunter.io</text>

    <!-- Credit bars depleting -->
    <rect x="-60" y="-70" width="120" height="15" rx="7" fill="#f1f3f5" />
    <rect x="-60" y="-70" width="120" height="15" rx="7" fill="#fa5252" opacity="0.2" />
    <rect x="-60" y="-70" width="30" height="15" rx="7" fill="#fa5252">
      <animate attributeName="width" values="120;80;40;10;0" dur="3s" repeatCount="indefinite" />
    </rect>
    <text x="0" y="-73" text-anchor="middle" font-family="system-ui" font-size="10" fill="white"
      font-weight="500">Credits</text>

    <!-- Price escalator -->
    <text x="0" y="-30" text-anchor="middle" font-family="system-ui" font-size="14" fill="#868e96">Monthly
      Cost:</text>
    <text x="0" y="-5" text-anchor="middle" font-family="system-ui" font-size="28" font-weight="700"
      fill="#fa5252"> $<tspan>
        <animate attributeName="textContent" values="49;99;149;299" dur="3s"
          repeatCount="indefinite" />
      </tspan>
    </text>

    <!-- Burning money icons -->
    <g transform="translate(0, 40)">
      <text x="-30" y="0" font-size="24" animation="burn">💸</text>
      <text x="0" y="0" font-size="24">
        <animate attributeName="opacity" values="0;1;0" dur="2s" repeatCount="indefinite" /> 💸 </text>
      <text x="30" y="0" font-size="24">
        <animate attributeName="opacity" values="0;1;0" dur="2s" begin="0.5s"
          repeatCount="indefinite" /> 💸 </text>
    </g>

    <!-- Warning badge -->
    <g transform="translate(70, -80)">
      <circle cx="0" cy="0" r="15" fill="#ff6b6b" />
      <text x="0" y="5" text-anchor="middle" font-family="system-ui" font-size="18" fill="white"
        font-weight="700">!</text>
    </g>
  </g>

  <!-- VS Divider -->
  <g transform="translate(400, 200)">
    <circle cx="0" cy="0" r="25" fill="#ffffff" stroke="#dee2e6" stroke-width="2" />
    <text x="0" y="5" text-anchor="middle" font-family="system-ui" font-size="14" font-weight="700"
      fill="#495057">VS</text>
  </g>

  <!-- FindForce Side (Right) -->
  <g transform="translate(600, 200)">
    <!-- Unlimited container -->
    <rect x="-80" y="-100" width="160" height="200" rx="20" fill="#ffffff" stroke="#4263eb"
      stroke-width="2" />
    <text x="0" y="-115" text-anchor="middle" font-family="system-ui" font-size="16"
      font-weight="600" fill="#495057">FindForce</text>

    <!-- Infinity symbol -->
    <path
      d="M -30 -40 Q -50 -40 -50 -25 Q -50 -10 -30 -10 L -10 -10 Q 10 -10 10 -25 Q 10 -40 -10 -40 L -30 -40 M 30 -40 Q 50 -40 50 -25 Q 50 -10 30 -10 L 10 -10 Q -10 -10 -10 -25 Q -10 -40 10 -40 L 30 -40"
      fill="url(#infinityGradient)" transform="scale(1.5)">
      <animateTransform attributeName="transform" type="rotate" from="0 0 -25" to="360 0 -25"
        dur="10s" repeatCount="indefinite" />
    </path>

    <!-- Fixed price -->
    <text x="0" y="10" text-anchor="middle" font-family="system-ui" font-size="14" fill="#868e96">
      Always:</text>
    <text x="0" y="35" text-anchor="middle" font-family="system-ui" font-size="32" font-weight="700"
      fill="#4263eb">$49</text>
    <text x="0" y="55" text-anchor="middle" font-family="system-ui" font-size="12" fill="#868e96">Unlimited
      Forever</text>

    <!-- Savings indicator -->
    <rect x="-60" y="70" width="120" height="30" rx="15" fill="#51cf66" />
    <text x="0" y="90" text-anchor="middle" font-family="system-ui" font-size="14" fill="white"
      font-weight="600">Save 83%</text>

    <!-- Success badge -->
    <g transform="translate(70, -80)">
      <circle cx="0" cy="0" r="15" fill="#51cf66" />
      <path d="M -7 0 L -2 5 L 7 -5" stroke="white" stroke-width="3" fill="none"
        stroke-linecap="round" stroke-linejoin="round" />
    </g>
  </g>

  <!-- Title -->
  <text x="400" y="30" text-anchor="middle" font-family="system-ui" font-size="24" font-weight="700"
    fill="#212529">The Credit Trap vs Unlimited Freedom</text>

  <!-- Subtitle -->
  <text x="400" y="380" text-anchor="middle" font-family="system-ui" font-size="14" fill="#868e96">Hunter.io:
    Pay more as you grow | FindForce: Same price at any scale</text>
</svg>
